X: 17604
T: Hogmanay, The
R: jig
M: 6/8
K: Dmajor
A|f2 f fgf|e2 d d2 e|f>gf fed|c2 B B3|
c2 c c>dc|B/c/BA AcB|Ace g2 a|g2 f fAd|
f3 fgf|e2 d d3|f>gf fed|c2 B B3|
c3 c>dc|B2 A AcB|Ace gfe|d2 d dAd||
f2 f e2 e|d2 d c2 c|B>cB BAB|c3 Ace|
g2 g f2 f|e2 e d2 d|c>dc B<cB|A3 A2 e|
f3 efe|d3 cdc|B>cB BAB|c2 B Ace|
g2 g f>gf|e2 e d>ed|cBA gfe|d3- d2||

